X:169
T:Mad Couple. JJo.169
B:J.Johnson Choice Collection Vol 8 1758
Z:vmp.Simon Wilson 2013 www.village-music-project.org.uk
N: This is version 2, for ABC software that understands trailing grace notes.
M:6/8
L:1/8
%Q:3/8=80
K:A
   E | Ac/B/A eae | fdf eae | fdf ed/c/B/A/ | dcBA2 :|\
|: E | Ac/B/A FDF | Bd/c/B GEG | AcA fga | dcBA2 :|
|: e | efe dcB | cea cBA | EAc EBd | cdBA2 :|\
|: e | aed ^cde | fdc Bcd | ecA Bcd | cdBA2 :|
%%begintext align
%%  First Cu. Right hands half round, Left
%% back again :| cross over and turn proper |:
%% set Corners without turning, the same the other
%% Corners Right and Left at top :|:
%%endtext
